X:1
T:To bless thy chosen race
T:To bless thy chosen race [Book 7] - Thomas Shoel
C:Thomas Shoel
Z:Text: Ps. 67, N.V., verses 1-4
%%score [ 1 2 3 4 ]
L:1/8
M:3/4
K:G
V:1 treble nm="Treble" snm="Tr."
V:2 treble nm="Alto" snm="A."
V:3 treble-8 transpose=-12 nm="Tenor" snm="T."
V:4 bass nm="Bass" snm="B."
V:1
 G2 | (B>c d2) (GB) | (c2 B2) A2 | G4 (Bd) | (d2 c2) B2 | (B2 A2) G2 | d4"^Trebles" d2 | %7
w: Let|diff- * * ’ring _|na- * tions|join To _|ce- * le-|brate _ thy|fame; Let|
w: To|bless _ _ thy _|cho- * sen|race, In _|mer- * cy,|Lord, _ in-|cline; And|
w: That|so _ _ thy _|wond- * rous|ways May _|through _ the|world _ be|known, Whilst|
 (d>c Bd) (gd) | (e2 f2) g2 | (e>d c2) B2 | (B2 A2) A2 | (BG Bd) (gd) | (c2 B2) A2 | %13
w: all _ _ _ the _|world, _ O|Lord, _ _ com-|bine _ To|praise _ _ _ thy _|glo- * rious|
w: cause _ _ _ the _|bright- * ness|of _ _ thy|face _ On|all _ _ _ thy _|saints _ to|
w: dis- * * * tant _|lands _ their|tri- * * bute|pay, _ And|thy _ _ _ sal- *|va- * tion|
 G4 z"^CHOS." B |[M:2/2] c4 (B2 c2) | d4 (c2 d2) | (e2 d2) (c2 B2) | A6 A2 | (B3 G B3 c | d8 | %20
w: name, Let|all the _|world, O _|Lord, _ com- *|bine To|praise _ _ _|_|
w: shine, And|cause the _|bright- ness _|of _ thy _|face On|all _ _ _|_|
w: own, Whilst|dis- tant _|lands their _|tri- * bute _|pay, And|thy _ _ _|_|
 e4 d2) c2 | B4 A4 | !fermata!G4 |] %23
w: * * thy|glo- rious|name.|
w: * * thy|saints to|shine.|
w: * * sal-|va- tion|own.|
V:2
 G2 | G4 (GD) | (E2 D2) C2 | B,4 G2 | (G2 F2) G2 | (D2 F2) G2 | F4 B2 | (B>A GB) (GB) | c4 B2 | %9
w: Let|diff- ’ring _|na- * tions|join To|ce- * le-|brate _ thy|fame; Let|all _ _ _ the _|world, O|
w: To|bless thy _|cho- * sen|race, In|mer- * cy,|Lord, _ in-|cline; And|cause _ _ _ the _|bright- ness|
w: That|so thy _|wond- * rous|ways May|through _ the|world _ be|known, Whilst|dis- * * * tant _|lands their|
 (c>B A2) G2 | (G2 F2) F2 | (GB dB) (GB) | (A2 G2) F2 | G4 z G |[M:2/2] F4 G4 | G4 G4 | %16
w: Lord, _ _ com-|bine _ To|praise _ _ _ thy _|glo- * rious|name, Let|all the|world, O|
w: of _ _ thy|face _ On|all _ _ _ thy _|saints _ to|shine, And|cause the|bright- ness|
w: tri- * * bute|pay, _ And|thy _ _ _ sal- *|va- * tion|own, Whilst|dis- tant|lands their|
 G4 (F2 G2) | F6 z2 | z4 z2 G2 | G2 G2 G2 G2 | G2 G2 G2 A2 | G4 F4 | !fermata!G4 |] %23
w: Lord, com- *|bine|To|praise thy glo- rious|name, to praise thy|glo- rious|name.|
w: of thy _|face|On|all thy saints to|shine, on all thy|saints to|shine.|
w: tri- bute _|pay,|And|thy sal- va- tion|own, and thy sal-|va- tion|own.|
V:3
 d2 | (d>c B2) G2 | G4 F2 | G4 d2 | (B2 c2) d2 | d4 (^ce) | A4 z2 | z6 | z6 | z6 | z6 | z6 | z6 | %13
w: Let|diff- * * ’ring|na- tions|join To|ce- * le-|brate thy _|fame;|||||||
w: To|bless _ _ thy|cho- sen|race, In|mer- * cy,|Lord, in- *|cline;|||||||
w: That|so _ _ thy|wond- rous|ways May|through _ the|world be _|known,|||||||
 z4 z B |[M:2/2] A4 (d2 c2) | B4 (c2 B2) | (A2 B2) (c2 d2) | d6 d2 | d2 d2 d3 c | (B2 G2 d2) B2 | %20
w: Let|all the _|world, O _|Lord, _ com- *|bine To|praise thy glo- rious|name, _ _ to|
w: And|cause the _|bright- ness _|of _ thy _|face On|all thy saints to|shine, _ _ on|
w: Whilst|dis- tant _|lands their _|tri- * bute _|pay, And|thy sal- va- tion|own, _ _ and|
 (c4 d2) e2 | d6 c2 | !fermata!B4 |] %23
w: praise _ thy|glo- rious|name.|
w: all _ thy|saints to|shine.|
w: thy _ sal-|va- tion|own.|
V:4
 G,2 | G,4 G,2 | (C,2"^64" D,2) D,2 | G,,4 G,2 |"^6" (B,2"^6" A,2) G,2 | (G,2"^6" F,2)"^6" E,2 | %6
w: Let|diff- ’ring|na- * tions|join To|ce- * le-|brate _ thy|
w: To|bless thy|cho- * sen|race, In|mer- * cy,|Lord, _ in-|
w: That|so thy|wond- * rous|ways May|through _ the|world _ be|
 D,4 G,2 | G,4 G,2 | (C,2"^6" A,,2) G,,2 | C,4"^75" ^C,2 |"^64""^53" D,4 D,2 | G,4 G,,2 | %12
w: fame; Let|all the|world, _ O|Lord, com-|bine To|praise thy|
w: cline; And|cause the|bright- * ness|of thy|face On|all thy|
w: known, Whilst|dis- tant|lands _ their|tri- bute|pay, And|thy sal-|
 C,2"^64""^53" D,4 | G,,4 z G, |[M:2/2]"^6" A,4"^5" (G,2"^7" A,2) | %15
w: glo- rious|name, Let|all the _|
w: saints to|shine, And|cause the _|
w: va- tion|own, Whilst|dis- tant _|
"^6" (B,2"^5" G,2)"^7" (A,2"^6" B,2) | %16
w: world, _ O _|
w: bright- * ness _|
w: lands _ their _|
"^Notes:The text has been added editorially: the only indication of text in the source is the heading 'Psalm. 67th. S.M.'.The order of the first and third parts has been reversed compared to the source: the first piece in the book has acomment 'N.B. The principal Air is next to the Base'.The second treble part from bar 6 to bar 13 (given here on the alto stave) is printed at the same pitch as givenhere in the topmost part in the source (otherwise treated as the tenor part in this edition): the alto part itself isnotated in the source in the treble clef an octave above sounding pitch.""^6" (C2 B,2)"^6" (A,2 G,2) | %17
w: Lord, _ com- *|
w: of _ thy _|
w: tri- * bute _|
 D,6 D,2 | G,2 G,2 G,3 A, |"^6" B,6 G,2 | (C,4"^6" B,,2) C,2 |"^64" D,4"^53" D,4 | !fermata!G,,4 |] %23
w: bine To|praise thy glo- rious|name, to|praise _ thy|glo- rious|name.|
w: face On|all thy saints to|shine, on|all _ thy|saints to|shine.|
w: pay, And|thy sal- va- tion|own, and|thy _ sal-|va- tion|own.|

